src/android-phone-portrait.svg

<?xml version="1.0" encoding="utf-8"?>
<!-- Generated by IcoMoon.io -->
<!DOCTYPE svg PUBLIC "-//W3C//DTD SVG 1.1//EN" "http://www.w3.org/Graphics/SVG/1.1/DTD/svg11.dtd">
<svg version="1.1" xmlns="http://www.w3.org/2000/svg" xmlns:xlink="http://www.w3.org/1999/xlink" width="512" height="512" viewBox="0 0 512 512">
<path fill="#000000" d="M358.856 32h-205.713c-22.631 0-41.143 18.326-41.143 40.728v366.545c0 22.401 18.512 40.727 41.143 40.727h205.713c22.632 0 41.144-18.326 41.144-40.728v-366.544c0-22.402-18.512-40.728-41.144-40.728zM364 400h-216v-288h216v288z"></path>
</svg>

<?xml version="1.0" encoding="utf-8"?>
<!-- Generator: Adobe Illustrator 16.2.1, SVG Export Plug-In . SVG Version: 6.00 Build 0)  -->
<!DOCTYPE svg PUBLIC "-//W3C//DTD SVG 1.1//EN" "http://www.w3.org/Graphics/SVG/1.1/DTD/svg11.dtd">
<svg version="1.1" id="Layer_1" xmlns="http://www.w3.org/2000/svg" xmlns:xlink="http://www.w3.org/1999/xlink" x="0px" y="0px"
	 width="512px" height="512px" viewBox="0 0 512 512" enable-background="new 0 0 512 512" xml:space="preserve">
<g id="Icon_6_">
	<g>
		<path d="M358.856,32H153.143C130.512,32,112,50.326,112,72.728v366.545C112,461.674,130.512,480,153.143,480h205.713
			C381.488,480,400,461.674,400,439.272V72.728C400,50.326,381.488,32,358.856,32z M364,400H148V112h216V400z"/>
	</g>
</g>
</svg>
